public/images/tickets/pink-paw-right-desktop.svg

<svg  viewBox="0 0 90 121" fill="none" xmlns="http://www.w3.org/2000/svg">
<path d="M31.4802 77.8934L33.9749 75.1969C35.0675 74.0159 35.645 72.4486 35.5801 70.8411C35.5408 69.8705 35.7357 68.9048 36.1483 68.0254L36.3355 67.6263C37.1823 65.8211 38.6837 64.4053 40.5355 63.6657L41.2644 63.3745C42.2952 62.9628 43.3883 62.7284 44.4973 62.6811L50.3001 62.4337C50.6592 62.4184 51.0159 62.3679 51.3651 62.2828C52.5138 62.003 53.5415 61.3598 54.2952 60.4488L56.113 58.2513C57.4485 56.637 59.1273 55.341 61.0271 54.4578L62.446 53.7981C64.4066 52.8866 66.5351 52.392 68.6968 52.3456C71.3056 52.2897 73.8869 52.8881 76.2049 54.0863L76.5716 54.2759C78.8852 55.4718 81.4396 56.1281 84.043 56.1956L86.0787 56.2483C88.0295 56.2988 89.9335 56.8562 91.6036 57.8655C93.0526 58.7413 94.2852 59.9329 95.2093 61.3515L100.662 69.7214C102.125 71.9676 103.344 74.3637 104.298 76.8688L106.32 82.1762C107.001 83.9653 107.269 85.9089 107.108 87.8166C106.744 92.1085 104.208 95.9744 100.393 97.9731C98.7491 98.8342 96.9354 99.3216 95.0815 99.4007L89.8785 99.6225L86.7965 100.022C84.1625 100.363 81.616 101.197 79.2899 102.479C76.4372 104.051 73.9852 106.259 72.1243 108.933L70.7059 110.97C69.9381 112.073 69.0694 113.102 68.111 114.044L67.3875 114.755C64.5477 117.547 60.8869 119.353 56.9438 119.908L56.8569 119.92C55.7428 120.077 54.6164 120.127 53.4928 120.069C49.2885 119.855 45.2988 118.147 42.2414 115.253L39.9134 113.049C38.3126 111.534 36.9081 109.824 35.7329 107.959L30.9009 100.293L29.0043 96.6959C27.3069 93.4769 26.7412 89.7807 27.3979 86.2013C27.6493 84.8315 28.076 83.4997 28.6675 82.2388L28.9275 81.6846C29.5784 80.2971 30.4394 79.0183 31.4802 77.8934Z" fill="#FFACD4"/>
<path d="M78.1369 48.742L79.7042 50.264C81.5005 52.0082 84.067 52.7072 86.4997 52.1148C87.4528 51.8826 88.3492 51.4603 89.135 50.8731L91.2581 49.2867C92.2082 48.5768 92.8374 47.5184 93.0071 46.3445C93.2189 44.8799 92.6923 43.4054 91.6007 42.4062L90.3137 41.228C89.5621 40.54 88.9531 39.7109 88.5215 38.7879L87.4845 36.5702L85.6767 33.7018C85.1227 32.823 84.4831 32.0012 83.767 31.2486C81.6291 29.0015 78.874 27.4374 75.8488 26.7531L75.3439 26.6389C73.8879 26.5205 72.5391 27.4113 72.0764 28.7969L71.1517 31.5661C70.7403 32.7982 70.6851 34.1214 70.9925 35.3834L71.5543 37.6904C71.9741 39.4137 72.6934 41.0498 73.6795 42.5241L76.6251 46.928C77.0639 47.5841 77.5706 48.1921 78.1369 48.742Z" fill="#FFACD4"/>
<path d="M70.0137 17.9401L72.3857 21.2529C73.0554 22.1882 72.7435 23.4996 71.7245 24.0334C71.1377 24.3408 70.4329 24.3193 69.8659 23.9766L67.7099 22.6736C67.225 22.3805 66.7814 22.024 66.3908 21.6135L62.6238 17.6542L59.8994 14.9105C59.7479 14.7579 59.884 14.5012 60.0953 14.5408L66.5952 15.7611C67.973 16.0197 69.1976 16.8004 70.0137 17.9401Z" fill="#FFACD4"/>
<path d="M47.2243 24.9526L47.908 21.9932C48.2503 20.5119 49.5391 19.4413 51.058 19.3765C51.977 19.3374 52.8723 19.6743 53.5374 20.3097L59.887 26.3758L64.7898 32.1396C66.0519 33.6235 67.0403 35.3199 67.7086 37.1497L68.6037 39.6006C68.949 40.5458 69.0543 41.5618 68.9103 42.5577C68.6655 44.2505 67.7194 45.762 66.3037 46.7218L65.7198 47.1177C63.9613 48.3099 61.7875 48.7204 59.7153 48.2517L59.6314 48.2327C58.4395 47.9631 57.3267 47.42 56.3809 46.6463L54.7914 45.3461C52.7907 43.7094 51.2002 41.6278 50.1468 39.2674L49.4879 37.791C48.6214 35.8495 48.0234 33.799 47.7105 31.6961L47.1154 27.6969C46.9795 26.7834 47.0164 25.8525 47.2243 24.9526Z" fill="#FFACD4"/>
<path d="M46.5516 10.7351L46.834 14.6061C46.9192 15.7747 46.1477 16.8339 45.0093 17.1111C43.9252 17.3752 42.8022 16.8568 42.2999 15.8604L39.527 10.3604C38.8225 8.9628 37.8043 7.74708 36.552 6.80819L31.0206 2.6609C30.6785 2.40437 30.9288 1.86265 31.3459 1.957L40.2476 3.97056C41.103 4.16404 41.9216 4.4939 42.6721 4.94749L43.1982 5.26546C45.1368 6.43708 46.3868 8.47599 46.5516 10.7351Z" fill="#FFACD4"/>
<path d="M31.0508 43.6315L29.9573 41.1813C29.2387 39.5713 28.6674 37.8996 28.2502 36.1866C27.4399 32.8596 27.2231 29.3943 27.6048 25.9914C27.8245 24.0331 29.8705 22.8226 31.6841 23.5933L33.217 24.2448C36.9486 25.8306 40.2592 28.2643 42.8863 31.3527C44.0042 32.667 44.9891 34.089 45.8263 35.5977L48.8989 41.1347L50.5912 44.3443C51.4372 45.9487 51.6272 47.8189 51.1212 49.5606C50.508 51.6717 48.9383 53.3718 46.8829 54.1515L46.8118 54.1785C45.1409 54.8123 43.2932 54.7974 41.6327 54.1368L40.2412 53.5832C38.7226 52.9791 37.3576 52.0443 36.2455 50.8467L34.7703 49.2582C33.23 47.5996 31.9733 45.6986 31.0508 43.6315Z" fill="#FFACD4"/>
<path d="M14.0414 38.5468L14.8584 37.2123C15.1696 36.704 15.6694 36.3396 16.2484 36.1985C16.6572 36.099 17.0858 36.1157 17.4856 36.2469L20.4202 37.2101C22.7077 37.9608 24.7436 39.3285 26.3035 41.1624L27.9967 43.153C29.0584 44.4011 29.9796 45.7622 30.7439 47.2116L33.2566 51.977C33.8239 53.0529 34.2563 54.1945 34.5441 55.3762L35.3773 58.7972C35.6363 59.8607 35.5241 60.9809 35.0592 61.9719C34.2084 63.7855 32.3208 64.88 30.3242 64.7177L29.7745 64.673C29.0551 64.6145 28.3539 64.4174 27.7095 64.0926L23.7655 62.1046C22.7378 61.5866 21.761 60.9733 20.8479 60.2728L20.2907 59.8454C18.9313 58.8027 17.7678 57.5269 16.8543 56.0775C16.0201 54.7539 15.4059 53.3038 15.0357 51.7837L14.4835 49.5165L13.604 45.9054C13.4499 45.2723 13.3485 44.6275 13.3011 43.9776L13.1675 42.145C13.0755 40.8837 13.3811 39.6253 14.0414 38.5468Z" fill="#FFACD4"/>
<path d="M7.51019 68.2998L7.87723 65.9952C8.4164 62.6097 11.7036 60.3839 15.0472 61.1403C16.5835 61.4878 17.9272 62.4455 18.7671 63.778L23.0986 71.5836L25.6694 77.3441C26.308 78.775 26.3633 80.3986 25.8234 81.8696L25.4123 82.9896C24.978 84.173 23.9825 85.0621 22.7577 85.3603C21.586 85.6457 20.3484 85.355 19.4264 84.5777L14.1469 80.1276C13.2102 79.3381 12.3597 78.4518 11.6094 77.4836L8.99925 74.1153C8.34846 73.2755 7.88214 72.3079 7.63073 71.2756C7.39348 70.3015 7.35251 69.2899 7.51019 68.2998Z" fill="#FFACD4"/>
<path d="M2.47959 43.6136L4.71082 39.9693C4.88336 39.6874 5.31819 39.8301 5.29027 40.1594L4.89548 44.816C4.81538 45.7608 4.88895 46.7123 5.11332 47.6336C5.37885 48.7239 5.85106 49.7531 6.50433 50.6655L7.53698 52.1077C7.82358 52.508 8.03075 52.9595 8.14724 53.4378L8.28083 53.9864C8.54477 55.0701 8.17222 56.2099 7.3193 56.9287C6.51712 57.6047 5.4152 57.8018 4.42849 57.4456C3.73987 57.197 3.16889 56.7002 2.82742 56.0526L2.21723 54.8954C1.97507 54.4361 1.79046 53.9487 1.6676 53.4442L1.22534 51.6283C0.90569 50.3159 0.840757 48.9543 1.03406 47.6174C1.23921 46.1985 1.73104 44.8363 2.47959 43.6136Z" fill="#FFACD4"/>
<path d="M6.00403 18.669L8.30362 13.1162C8.41408 12.8495 8.80115 12.8793 8.86946 13.1598L9.20883 14.5532L9.65048 17.9953C9.95089 20.3367 10.925 22.5403 12.4545 24.3384C13.1592 25.1669 13.7498 26.0861 14.2106 27.0714L15.2071 29.2025L15.9944 30.8863C16.5275 32.0261 16.2292 33.3818 15.2669 34.1927C14.6006 34.7542 13.7098 34.9712 12.8599 34.779L12.0461 34.5949C11.2189 34.4078 10.4622 33.9888 9.86472 33.387L8.83399 32.3489C7.99176 31.5007 7.31743 30.501 6.84647 29.4024L6.05896 27.5653C5.80896 26.9821 5.60784 26.3791 5.45769 25.7626C4.88228 23.4 5.07362 20.9156 6.00403 18.669Z" fill="#FFACD4"/>
<path d="M16.7195 5.4744L15.001 0.963188C14.8502 0.567238 15.3135 0.222098 15.6497 0.479985C17.5188 1.91372 19.264 3.50201 20.867 5.22809L23.9489 8.54673L27.6779 13.3588C28.315 14.181 28.5908 15.2267 28.4419 16.2561L28.4008 16.5405C28.2017 17.9177 27.1856 19.0356 25.8336 19.3649C24.8306 19.6091 23.771 19.3858 22.952 18.7575L21.6696 17.7738C20.7468 17.066 20.0216 16.1328 19.5634 15.064L18.8392 13.3748C18.5378 12.6715 18.2952 11.9444 18.1142 11.201L16.7195 5.4744Z" fill="#FFACD4"/>
</svg>

<svg xmlns="http://www.w3.org/2000/svg" fill="none" viewBox="0 0 90 121"><path fill="#FFACD4" d="m31.48 77.893 2.495-2.696a6.05 6.05 0 0 0 1.605-4.356c-.04-.97.156-1.936.568-2.816l.188-.399a7.86 7.86 0 0 1 4.2-3.96l.728-.291a9.9 9.9 0 0 1 3.233-.694l5.803-.247a5.48 5.48 0 0 0 3.995-1.985l1.818-2.198a14.1 14.1 0 0 1 4.914-3.793l1.419-.66a15.62 15.62 0 0 1 13.759.288l.367.19a17.24 17.24 0 0 0 7.471 1.92l2.036.052a11.25 11.25 0 0 1 9.13 5.104l5.453 8.37a37.6 37.6 0 0 1 3.636 7.147l2.022 5.307c.681 1.79.949 3.733.788 5.64-.364 4.293-2.9 8.158-6.715 10.157a12.6 12.6 0 0 1-5.311 1.428l-5.203.222-3.083.399a21.19 21.19 0 0 0-14.672 8.911l-1.418 2.037a21.7 21.7 0 0 1-2.595 3.074l-.724.711a18.6 18.6 0 0 1-10.443 5.153l-.087.012a17.674 17.674 0 0 1-14.616-4.667l-2.328-2.204a26.4 26.4 0 0 1-4.18-5.09l-4.832-7.666-1.897-3.597a16.22 16.22 0 0 1-.337-14.457l.26-.554a14.9 14.9 0 0 1 2.553-3.792M78.137 48.742l1.567 1.522a7.28 7.28 0 0 0 9.431.61l2.123-1.587a4.47 4.47 0 0 0 .343-6.88l-1.287-1.179a7.8 7.8 0 0 1-1.792-2.44l-1.038-2.218-1.807-2.868a15.72 15.72 0 0 0-9.828-6.949l-.505-.114a3.174 3.174 0 0 0-3.268 2.158l-.924 2.77a6.9 6.9 0 0 0-.16 3.816l.562 2.307a15.1 15.1 0 0 0 2.126 4.834l2.945 4.404c.439.656.946 1.264 1.512 1.814M70.014 17.94l2.372 3.313a1.894 1.894 0 0 1-2.52 2.724l-2.156-1.303a6.4 6.4 0 0 1-1.32-1.06l-3.766-3.96-2.725-2.743a.22.22 0 0 1 .196-.37l6.5 1.22a5.44 5.44 0 0 1 3.419 2.18M47.224 24.953l.684-2.96a3.38 3.38 0 0 1 5.63-1.683l6.349 6.066 4.903 5.764a16.4 16.4 0 0 1 2.919 5.01l.895 2.45a6.08 6.08 0 0 1-2.3 7.122l-.584.396a7.68 7.68 0 0 1-6.005 1.134l-.084-.02a7.9 7.9 0 0 1-3.25-1.586l-1.59-1.3a16.6 16.6 0 0 1-4.644-6.079l-.66-1.476a23.4 23.4 0 0 1-1.776-6.095l-.596-4a7.4 7.4 0 0 1 .11-2.743M46.552 10.735l.282 3.871A2.399 2.399 0 0 1 42.3 15.86l-2.773-5.5a10.15 10.15 0 0 0-2.975-3.552l-5.531-4.147c-.343-.257-.092-.798.325-.704l8.902 2.014a8.2 8.2 0 0 1 2.424.976l.526.318a6.99 6.99 0 0 1 3.354 5.47M31.05 43.632l-1.093-2.45a29.2 29.2 0 0 1-2.352-15.19c.22-1.959 2.265-3.17 4.08-2.399l1.532.652a26.1 26.1 0 0 1 12.61 11.353l3.072 5.537 1.692 3.21a6.998 6.998 0 0 1-3.708 9.807l-.071.026a7.15 7.15 0 0 1-5.18-.041l-1.39-.554a11 11 0 0 1-3.996-2.736l-1.476-1.589a20.6 20.6 0 0 1-3.72-5.626M14.041 38.547l.817-1.335a2.256 2.256 0 0 1 2.628-.965l2.934.963a13.1 13.1 0 0 1 5.883 3.952l1.694 1.991a22.4 22.4 0 0 1 2.747 4.059l2.513 4.765c.567 1.076 1 2.218 1.287 3.4l.833 3.42a4.8 4.8 0 0 1-5.053 5.92l-.55-.044a5.6 5.6 0 0 1-2.065-.58l-3.943-1.988a18.4 18.4 0 0 1-2.918-1.832l-.557-.428a14.48 14.48 0 0 1-5.255-8.061l-.553-2.267-.879-3.612a12 12 0 0 1-.303-1.927l-.133-1.833a6.05 6.05 0 0 1 .873-3.598M7.51 68.3l.367-2.305a5.934 5.934 0 0 1 7.17-4.855 5.97 5.97 0 0 1 3.72 2.638l4.332 7.806 2.57 5.76a6.02 6.02 0 0 1 .154 4.526l-.41 1.12a3.78 3.78 0 0 1-5.987 1.588l-5.28-4.45a17.4 17.4 0 0 1-2.537-2.644L9 74.115A7.55 7.55 0 0 1 7.51 68.3M2.48 43.614l2.23-3.645c.173-.282.608-.139.58.19l-.395 4.657a8.78 8.78 0 0 0 1.61 5.85l1.032 1.442c.287.4.494.852.61 1.33l.134.548a2.939 2.939 0 0 1-5.454 2.067l-.61-1.158a6.3 6.3 0 0 1-.55-1.45l-.442-1.817a10.56 10.56 0 0 1 1.255-8.014M6.004 18.669l2.3-5.553a.299.299 0 0 1 .565.044l.34 1.393.441 3.442a12.2 12.2 0 0 0 2.804 6.343 12.2 12.2 0 0 1 1.757 2.733l.996 2.131.787 1.684a2.782 2.782 0 0 1-3.134 3.893l-.814-.184a4.46 4.46 0 0 1-2.181-1.208l-1.031-1.038a9.5 9.5 0 0 1-1.988-2.947l-.787-1.837a11.46 11.46 0 0 1-.055-8.896M16.72 5.474 15 .964c-.15-.397.313-.742.649-.484a42 42 0 0 1 5.217 4.748l3.082 3.319 3.729 4.812c.637.822.913 1.868.764 2.897l-.041.285a3.41 3.41 0 0 1-5.449 2.217l-1.282-.984a6.8 6.8 0 0 1-2.107-2.71l-.724-1.69a14 14 0 0 1-.725-2.173z"/></svg>
